public/assets/routes_avatar/roleManage.svg

<?xml version="1.0" encoding="UTF-8"?>
<svg width="60px" height="60px" viewBox="0 0 60 60" version="1.1" xmlns="http://www.w3.org/2000/svg" xmlns:xlink="http://www.w3.org/1999/xlink">
    <!-- Generator: Sketch 49.3 (51167) - http://www.bohemiancoding.com/sketch -->
    <title>用户权限-角色管理 </title>
    <desc>Created with Sketch.</desc>
    <defs>
        <path d="M20.9174312,7.72362385 C20.9174312,3.45756881 17.4667431,0 13.2110092,0 C8.95527523,0 5.50458716,3.45756881 5.50458716,7.72362385 C5.50458716,11.9896789 8.95527523,15.4472477 13.2110092,15.4472477 C17.4667431,15.4472477 20.9174312,11.9896789 20.9174312,7.72362385 Z M13.2110092,12.9633028 C10.3245413,12.9633028 7.98165138,10.6169725 7.98165138,7.72362385 C7.98165138,4.83027523 10.3245413,2.48394495 13.2110092,2.48394495 C16.0974771,2.48394495 18.440367,4.83027523 18.440367,7.72362385 C18.440367,10.6169725 16.0974771,12.9633028 13.2110092,12.9633028 Z M20.4357798,17.6009174 C18.3577982,16.2385321 15.8772936,15.4472477 13.2110092,15.4472477 C5.91399083,15.4472477 0,21.375 0,28.6892202 L0.00344036697,28.6892202 C0.00344036697,28.7133028 0,28.733945 0,28.7580275 C0,29.4426606 0.553899083,30 1.23853211,30 C1.92316514,30 2.47706422,29.4426606 2.47706422,28.7580275 C2.47706422,28.733945 2.47706422,28.7133028 2.47362385,28.6892202 L2.47706422,28.6892202 C2.47706422,22.7477064 7.28325688,17.9311927 13.2110092,17.9311927 C14.559633,17.9311927 15.8497706,18.1788991 17.0366972,18.6364679 C18.0481651,18.0447248 19.2006881,17.6766055 20.4357798,17.6009174 Z" id="path-1"></path>
        <path d="M25.6279534,24.0832895 L25.5875623,23.8278844 L24.80844,23.5671583 C24.740413,23.3564491 24.6553792,23.1499966 24.5544015,22.9531218 L24.9221728,22.2177679 L24.7712377,22.0070586 C24.465116,21.5888327 24.0994706,21.2227521 23.6838679,20.9205227 L23.4744721,20.769408 L22.7399925,21.137617 C22.5422889,21.0365191 22.3371449,20.9513841 22.1266862,20.8832761 L21.867333,20.1053546 L21.6143575,20.0659797 C21.332683,20.0212838 21.0892737,20 20.8469273,20 C20.6109585,20 20.3664863,20.0212838 20.0784342,20.0670438 L19.8233328,20.107483 L19.5639797,20.888597 C19.3492693,20.9588334 19.1430623,21.0439685 18.9506733,21.1418738 L18.2172567,20.7726005 L18.0078609,20.9237152 C17.5911952,21.2259446 17.2255498,21.5909611 16.9215539,22.0102512 L16.7706189,22.2209604 L17.1383902,22.9563144 C17.0384754,23.1531892 16.9534416,23.3585774 16.8854146,23.5692867 L16.1062923,23.8278844 L16.0659012,24.0832895 C16.0212585,24.3652993 16,24.6164477 16,24.8537616 C16,25.0921398 16.0212585,25.3432881 16.0659012,25.6231696 L16.1062923,25.8785747 L16.8854146,26.1393008 C16.9534416,26.35001 17.0384754,26.5564625 17.1394531,26.7533373 L16.7738077,27.4865628 L16.9247427,27.6951437 C17.0820553,27.9143664 17.2446824,28.1069845 17.4211276,28.2847039 C17.5858806,28.4507172 17.7782696,28.613538 18.0089238,28.7827439 L18.2183196,28.9338586 L18.9517362,28.5656495 C19.1494398,28.6667474 19.3545839,28.7529466 19.5650426,28.8199905 L19.8243957,29.6011045 L20.0794971,29.6415436 C20.3590458,29.6862395 20.6098955,29.7075233 20.8469273,29.7075233 C21.0839591,29.7075233 21.3348088,29.6862395 21.6154204,29.6415436 L21.8705218,29.6011045 L22.1298749,28.8199905 C22.3382078,28.7518824 22.5433519,28.6667474 22.7421184,28.5667137 L23.4765979,28.9349228 L23.6859937,28.7838081 C23.9145221,28.6188589 24.1069111,28.4560381 24.2737899,28.2857681 C24.4470463,28.1123054 24.6086106,27.9186232 24.7701748,27.6962079 L24.9211098,27.4854987 L24.5533386,26.7501447 C24.6543162,26.5532699 24.7393501,26.3478816 24.8073771,26.1361082 L25.5864994,25.8753822 L25.6268905,25.619977 C25.6715332,25.3400956 25.6927917,25.0889472 25.6927917,24.8516333 C25.6959804,24.6164477 25.674722,24.3642351 25.6279534,24.0832895 Z M24.9317391,24.8452481 L24.9317391,24.8505691 C24.9317391,24.9942345 24.9221728,25.1400282 24.9041031,25.2964639 L24.5278285,25.4220381 L24.1951337,25.534842 L24.0920302,25.8700612 C24.0335694,26.0637434 23.9559761,26.2521047 23.8613759,26.4308883 L23.6976859,26.740567 L24.0314436,27.4078129 C23.9336547,27.5312587 23.8369287,27.6408701 23.7359511,27.741968 L23.7338252,27.7440964 C23.6349734,27.84413 23.5254924,27.9409711 23.4021934,28.0378122 L22.7378667,27.7047214 L22.4296191,27.8654138 C22.2478594,27.9601265 22.0565333,28.0388764 21.8620184,28.1005993 L21.5293236,28.2048898 L21.4209055,28.5347881 L21.2954807,28.9115106 C21.140294,28.930666 20.9936106,28.9391795 20.8501161,28.9391795 C20.7076844,28.9391795 20.5610011,28.9296018 20.4047515,28.9115106 L20.2793266,28.5347881 L20.1698456,28.2016972 L19.8350249,28.098471 C19.6373213,28.0378122 19.449184,27.9601265 19.2748647,27.8675422 L18.9644913,27.7057856 L18.6509291,27.8622212 L18.2969759,28.0388764 C18.1736768,27.9409711 18.0641958,27.84413 17.9632181,27.7430322 C17.8601146,27.6398059 17.7633887,27.5301946 17.6677256,27.4088771 L17.9993575,26.7437596 L17.8377933,26.4351451 C17.7410673,26.2499763 17.662411,26.0605509 17.6050132,25.8711254 L17.5019097,25.5359062 L16.7940032,25.3007206 C16.7748706,25.1453492 16.7663672,24.9984912 16.7663672,24.8548258 C16.7663672,24.7111604 16.7759335,24.5653667 16.7940032,24.408931 L17.4997839,24.1737455 L17.6028874,23.8395904 C17.662411,23.6469724 17.7410673,23.4564827 17.8356674,23.2734424 L17.9972317,22.9648279 L17.842045,22.6530208 L17.6655998,22.2986462 C17.8516113,22.0666532 18.0631329,21.8548797 18.29485,21.6686468 L18.9602396,22.0017377 L19.2695501,21.8389169 C19.4481211,21.7452684 19.6383842,21.6665185 19.8350249,21.6047956 L20.1677197,21.5005051 L20.2782637,21.1695427 L20.4036886,20.7928201 C20.5641899,20.7747289 20.7098103,20.7651512 20.8479902,20.7651512 C20.9904219,20.7651512 21.1371052,20.7747289 21.2922919,20.7928201 L21.5282607,21.4983768 L21.8609555,21.601603 C22.0544074,21.6622617 22.2446706,21.7410116 22.4264304,21.8346602 L22.7346779,21.9964168 L23.3990046,21.6633259 C23.6307217,21.8495588 23.8433063,22.0613322 24.0314436,22.2943894 L23.6998117,22.9595069 L23.8592501,23.2670573 C23.9538502,23.4500976 24.0335694,23.6416515 24.094156,23.8363979 L24.1983224,24.1694887 L24.5288914,24.2801643 L24.905166,24.4057385 C24.9253615,24.5653667 24.9338649,24.7090321 24.9317391,24.8452481 Z M20.8490531,22.9988819 C19.8275845,22.9988819 18.996379,23.8310769 18.996379,24.8537616 C18.996379,25.8764463 19.8275845,26.7086414 20.8490531,26.7086414 C21.8705218,26.7086414 22.7017273,25.8764463 22.7017273,24.8537616 C22.7017273,23.8310769 21.8705218,22.9988819 20.8490531,22.9988819 Z M21.6175462,25.6231696 C21.4124022,25.8285579 21.139231,25.942426 20.8490531,25.942426 C20.5588753,25.942426 20.2857041,25.8296221 20.0805601,25.6231696 C19.875416,25.4177813 19.7616833,25.144285 19.7616833,24.8537616 C19.7616833,24.5632383 19.8743531,24.289742 20.0805601,24.0843537 C20.2857041,23.8789654 20.5588753,23.7650973 20.8490531,23.7650973 C21.139231,23.7650973 21.4124022,23.8779012 21.6175462,24.0843537 C21.8226903,24.2908062 21.936423,24.5632383 21.936423,24.8537616 C21.936423,25.144285 21.8226903,25.4177813 21.6175462,25.6231696 Z" id="path-2"></path>
    </defs>
    <g id="icon" stroke="none" stroke-width="1" fill="none" fill-rule="evenodd">
        <g id="用户权限-角色管理-">
            <circle id="Oval-Copy" fill="#49A7FF" cx="30" cy="30" r="30"></circle>
            <g id="Group-26" transform="translate(17.000000, 15.000000)" fill-rule="nonzero">
                <g id="Shape">
                    <use fill="#FFFFFF" fill-rule="evenodd" xlink:href="#path-1"></use>
                    <path stroke="#49A7FF" stroke-width="0.2" d="M20.8174312,7.72362385 C20.8174312,3.51303285 17.4117495,0.1 13.2110092,0.1 C9.01026886,0.1 5.60458716,3.51303285 5.60458716,7.72362385 C5.60458716,11.9342149 9.01026886,15.3472477 13.2110092,15.3472477 C17.4117495,15.3472477 20.8174312,11.9342149 20.8174312,7.72362385 Z M13.2110092,13.0633028 C10.2688641,13.0633028 7.88165138,10.6717516 7.88165138,7.72362385 C7.88165138,4.77549611 10.2688641,2.38394495 13.2110092,2.38394495 C16.1531542,2.38394495 18.540367,4.77549611 18.540367,7.72362385 C18.540367,10.6717516 16.1531542,13.0633028 13.2110092,13.0633028 Z M2.38689431,28.6892202 L2.47706422,28.6892202 L2.47706422,28.5892202 L2.47362385,28.5892202 L2.38689431,28.6892202 Z M0.100000435,28.6857803 L0.00344036697,28.5892202 L0,28.5892202 L0,28.6892202 L0.1,28.6892202 C0.1,28.6880735 0.100000146,28.6869269 0.100000439,28.6857803 Z M20.1316945,17.525094 C20.2153083,17.5772696 20.2983984,17.6304225 20.3809505,17.684546 L20.4296632,17.5011047 C20.3299656,17.5072143 20.2306305,17.5152168 20.1316945,17.525094 Z"></path>
                </g>
                <g id="Shape">
                    <use fill="#FFFFFF" fill-rule="evenodd" xlink:href="#path-2"></use>
                    <path stroke="#FFFFFF" stroke-width="0.2" d="M25.7266628,24.0672703 C25.7743019,24.3535642 25.7960559,24.6115579 25.7927917,24.8516333 C25.7927917,25.0956906 25.7708564,25.3522642 25.725663,25.6355974 L25.6852719,25.8910025 L25.6182338,25.9702132 L24.9025856,26.1666916 C24.8329742,26.3833973 24.7458958,26.5938366 24.6427767,26.7054142 L25.010548,27.4407681 L25.0024049,27.5437319 L24.8510817,27.7549793 C24.682957,27.986426 24.5181209,28.1826518 24.3452082,28.355764 C24.1745777,28.5298619 23.9780406,28.6963399 23.7445133,28.8648972 L23.5351176,29.0160119 L23.4317822,29.0243182 L22.7870734,28.6560392 C22.5827394,28.7588748 22.3729314,28.8457388 22.2247803,28.8515019 L21.9654272,29.6326159 L21.8861785,29.6998712 L21.6311501,29.7402987 C21.346825,29.7855861 21.0905726,29.8075233 20.8469273,29.8075233 C20.6031406,29.8075233 20.3468537,29.7855603 20.0638405,29.7403104 L19.808739,29.6998712 L19.7294903,29.6326159 L19.5346894,28.9152726 C19.3232076,28.8479028 19.1131077,28.7604846 18.9966038,28.655019 L18.2631872,29.023228 L18.1597999,29.0149477 L17.9497739,28.8633745 C17.7144813,28.6907658 17.5183394,28.5246227 17.350163,28.3551597 C17.168803,28.17249 17.0028944,27.9755739 16.8437289,27.7537676 L16.6927939,27.5451867 L16.6843178,27.441936 L17.0504743,26.7989748 C16.9477485,26.5986916 16.8604291,26.3873957 16.8536802,26.2341319 L16.0745579,25.9734058 L16.0075198,25.8941951 L15.9671495,25.6389211 C15.9219105,25.3553015 15.9,25.09875 15.9,24.8537616 C15.9,24.6099873 15.9218836,24.3534842 15.9671287,24.0676691 L16.0075198,23.812264 L16.0747912,23.7329756 L16.7902511,23.5385634 C16.8595368,23.3239556 16.946396,23.1136592 17.048952,23.0010449 L16.6811808,22.265691 L16.6893238,22.1627272 L16.8405939,21.9515531 C17.1500932,21.5246723 17.5229815,21.1518867 17.9493413,20.8426261 L18.158737,20.6915114 L18.2622277,20.6832831 L18.905319,21.0527503 C19.1022722,20.9525223 19.3132386,20.8654054 19.4690743,20.8570856 L19.7284274,20.0759716 L19.8076761,20.0087163 L20.0627449,19.9682823 C20.3555128,19.921773 20.605212,19.9 20.8469273,19.9 C21.0932233,19.9 21.3415198,19.9214349 21.629737,19.9671694 L21.8827126,20.0065443 L21.9621997,20.0737268 L22.1574758,20.7881341 C22.3727632,20.8578048 22.5828492,20.944944 22.6951768,21.0482215 L23.4296564,20.6800125 L23.5329917,20.6883188 L23.7426816,20.8396465 C24.1657197,21.147283 24.5389874,21.5204483 24.8525328,21.9488254 L25.0034679,22.1595347 L25.0116109,22.2624984 L24.6433803,22.9074843 C24.7461061,23.1077675 24.8334255,23.3190633 24.8401744,23.4723272 L25.6192967,23.7330533 L25.6863348,23.812264 L25.7266628,24.0672703 Z M24.8133122,24.4805059 L24.4971432,24.3749907 L24.1028806,24.1993359 L23.9986702,23.866104 C23.9406291,23.6795398 23.863651,23.4933747 23.7704709,23.3130817 L23.6103192,22.9148854 L23.9130494,22.3077327 C23.7529836,22.1157256 23.5753209,21.9386619 23.3831056,21.7794175 L22.6882111,22.0849652 L22.380629,21.9235547 C22.2027048,21.8318824 22.0177057,21.7555543 21.8313218,21.6971114 L21.433424,21.5300943 L21.2177567,20.8852401 C21.0871695,20.8718313 20.96511,20.8651512 20.8479902,20.8651512 C20.7343478,20.8651512 20.6132219,20.8718413 20.4782539,20.8854242 L20.3731128,21.201223 L20.1976317,21.5959267 L19.8649729,21.7002058 C19.673901,21.7601808 19.4891686,21.8366589 19.3161305,21.9274057 L18.9154757,22.0911591 L18.3079791,21.7870492 C18.1175836,21.9451782 17.9417981,22.121184 17.7838678,22.3118176 L17.9315699,22.6084641 L18.0858256,23.0112081 L17.9245042,23.3193556 C17.8319747,23.4983896 17.7558097,23.6834333 17.6984422,23.8690739 L17.5313976,24.2686168 L16.8864674,24.4835253 C16.8730012,24.6153819 16.8663672,24.7369383 16.8663672,24.8548258 C16.8663672,24.9789672 16.8728982,25.1026728 16.8864703,25.2295572 L17.5974909,25.5065082 L17.7007162,25.8421264 C17.7557707,26.0238186 17.8316761,26.2074533 17.9263872,26.3887649 L18.0888501,26.7883812 L17.7857452,27.3962851 C17.8666637,27.4957874 17.9483037,27.5865944 18.0339709,27.6723636 C18.1180099,27.7565027 18.2086855,27.8381749 18.3097285,27.9207489 L18.6062866,27.7727391 L19.010708,27.6171063 L19.3217712,27.7792258 C19.4908179,27.8690098 19.6731171,27.944194 19.8644868,28.0029095 L20.2648456,28.1704724 L20.3742062,28.5031991 L20.4793678,28.8190596 C20.6108921,28.8325027 20.7330115,28.8391795 20.8501161,28.8391795 C20.9729141,28.8391795 21.0952851,28.8327657 21.2207373,28.8194415 L21.3259043,28.5035668 L21.4994117,28.1094682 L21.8317729,28.005283 C22.0228765,27.9446425 22.2086481,27.8677968 22.3833925,27.7767397 L22.7826879,27.6153287 L23.3898323,27.9197486 C23.4902977,27.8382932 23.5805536,27.7569315 23.6630725,27.6734278 L23.6651983,27.6712994 C23.7500264,27.5863703 23.8323445,27.4946711 23.9156126,27.3923602 L23.6092767,26.6938357 L23.7729869,26.3841189 C23.8647844,26.2106319 23.939834,26.0282258 23.996449,25.8406633 L24.1630231,25.4401377 L24.4961718,25.327181 L24.8116356,25.2219012 C24.8251041,25.0900325 24.8317391,24.968466 24.8317391,24.8505691 L24.8317391,24.8452481 L24.8317512,24.8436877 C24.8335335,24.7294884 24.8275362,24.6101648 24.8133122,24.4805059 Z M20.8490531,22.8988819 C21.9257769,22.8988819 22.8017273,23.7758751 22.8017273,24.8537616 C22.8017273,25.9316482 21.9257769,26.8086414 20.8490531,26.8086414 C19.7723293,26.8086414 18.896379,25.9316482 18.896379,24.8537616 C18.896379,23.7758751 19.7723293,22.8988819 20.8490531,22.8988819 Z M21.5467935,25.552501 C21.7334722,25.3656 21.836423,25.1174136 21.836423,24.8537616 C21.836423,24.5904723 21.7337241,24.3431456 21.5466111,24.1548392 C21.3606908,23.9677331 21.1132437,23.8650973 20.8490531,23.8650973 C20.5857964,23.8650973 20.3379687,23.9681442 20.15113,24.1552049 C19.9642235,24.3413692 19.8616833,24.5891749 19.8616833,24.8537616 C19.8616833,25.1174136 19.9646341,25.3656 20.1514952,25.552684 C20.3374155,25.7397902 20.5848626,25.842426 20.8490531,25.842426 C21.1123099,25.842426 21.3601376,25.7393791 21.5467935,25.552501 Z"></path>
                </g>
            </g>
        </g>
    </g>
</svg>

<svg width="60" height="60" xmlns="http://www.w3.org/2000/svg" xmlns:xlink="http://www.w3.org/1999/xlink"><defs><path d="M20.917 7.724c0-4.266-3.45-7.724-7.706-7.724S5.505 3.458 5.505 7.724s3.45 7.723 7.706 7.723 7.706-3.457 7.706-7.723zm-7.706 5.24a5.236 5.236 0 0 1-5.23-5.24 5.236 5.236 0 0 1 5.23-5.24 5.236 5.236 0 0 1 5.23 5.24 5.236 5.236 0 0 1-5.23 5.24zm7.225 4.637a13.128 13.128 0 0 0-7.225-2.154C5.914 15.447 0 21.375 0 28.69h.003c0 .024-.003.045-.003.069A1.24 1.24 0 0 0 1.239 30a1.24 1.24 0 0 0 1.238-1.242c0-.024 0-.045-.003-.069h.003c0-5.941 4.806-10.758 10.734-10.758 1.349 0 2.639.248 3.826.705a7.635 7.635 0 0 1 3.399-1.035z" id="a"/><path d="M25.628 24.083l-.04-.255-.78-.26a4.126 4.126 0 0 0-.254-.615l.368-.735-.15-.21a4.97 4.97 0 0 0-1.088-1.087l-.21-.152-.734.369a4.162 4.162 0 0 0-.613-.255l-.26-.778-.253-.039a4.804 4.804 0 0 0-.767-.066c-.236 0-.48.021-.769.067l-.255.04-.259.782a4.31 4.31 0 0 0-.613.253l-.734-.37-.21.152a4.874 4.874 0 0 0-1.085 1.086l-.151.211.367.735c-.1.197-.185.403-.253.613l-.779.259-.04.255a4.898 4.898 0 0 0-.066.77c0 .24.021.49.066.77l.04.256.78.26c.067.211.152.417.253.614l-.365.734.15.208c.158.22.32.412.497.59.165.166.357.329.588.498l.21.15.733-.367c.197.1.403.187.613.254l.26.781.254.04c.28.045.53.067.768.067.237 0 .488-.022.768-.066l.256-.04.259-.782a4.42 4.42 0 0 0 .612-.253l.735.368.209-.151a4.506 4.506 0 0 0 1.084-1.088l.151-.21-.368-.736a4.08 4.08 0 0 0 .254-.614l.78-.26.04-.256c.045-.28.066-.531.066-.768a4.313 4.313 0 0 0-.065-.769zm-.696.762v.006c0 .143-.01.289-.028.445l-.376.126-.333.113-.103.335a3.143 3.143 0 0 1-.23.56l-.164.31.333.668a3.859 3.859 0 0 1-.295.334l-.002.002c-.099.1-.209.197-.332.294l-.664-.333-.308.16a3.565 3.565 0 0 1-.568.236l-.333.104-.108.33-.126.377a3.61 3.61 0 0 1-.89 0l-.126-.377-.11-.333-.334-.104a3.191 3.191 0 0 1-.56-.23l-.31-.162-.314.156-.354.177a3.78 3.78 0 0 1-.63-.63l.332-.665-.161-.309a3.274 3.274 0 0 1-.233-.564l-.103-.335-.708-.235a3.623 3.623 0 0 1 0-.892l.706-.235.103-.334c.06-.193.138-.384.233-.567l.161-.308-.155-.312-.176-.354c.186-.232.397-.444.629-.63l.665.333.31-.163c.178-.094.368-.172.565-.234l.333-.104.11-.331.126-.377a3.96 3.96 0 0 1 .444-.028c.142 0 .29.01.444.028l.236.705.333.104c.193.06.384.139.565.233l.309.161.664-.333c.232.187.444.398.632.631l-.331.666.16.307c.094.183.174.375.234.57l.104.332.33.111.377.126c.02.16.029.303.027.44zM20.849 23a1.856 1.856 0 0 0 0 3.71 1.856 1.856 0 0 0 0-3.71zm.769 2.624a1.08 1.08 0 0 1-.769.32c-.29 0-.563-.113-.768-.32a1.083 1.083 0 0 1-.32-.77c0-.29.113-.563.32-.769a1.08 1.08 0 0 1 .768-.319c.29 0 .563.113.769.32a1.085 1.085 0 0 1 0 1.538z" id="b"/></defs><g fill="none" fill-rule="evenodd"><circle fill="#49A7FF" cx="30" cy="30" r="30"/><g fill-rule="nonzero"><g transform="translate(17 15)"><use fill="#FFF" fill-rule="evenodd" xlink:href="#a"/><path stroke="#49A7FF" stroke-width=".2" d="M20.817 7.724C20.817 3.513 17.412.1 13.211.1c-4.2 0-7.606 3.413-7.606 7.624 0 4.21 3.405 7.623 7.606 7.623 4.2 0 7.606-3.413 7.606-7.623zm-7.606 5.34a5.336 5.336 0 0 1-5.33-5.34 5.336 5.336 0 0 1 5.33-5.34 5.336 5.336 0 0 1 5.33 5.34 5.336 5.336 0 0 1-5.33 5.34zM2.387 28.688h.09v-.1h-.003l-.087.1zM.1 28.686l-.097-.097H0v.1h.1v-.003zm20.032-11.16c.083.051.166.104.249.159l.049-.184c-.1.006-.2.014-.298.024z"/></g><g transform="translate(17 15)"><use fill="#FFF" fill-rule="evenodd" xlink:href="#b"/><path stroke="#FFF" stroke-width=".2" d="M25.727 24.067c.047.287.07.545.066.785 0 .244-.022.5-.067.784l-.04.255-.068.08-.715.196c-.07.216-.157.427-.26.538l.368.736-.009.103-.15.211a4.604 4.604 0 0 1-1.107 1.11l-.21.151-.103.008-.645-.368c-.204.103-.414.19-.562.196l-.26.78-.079.068-.255.04c-.284.046-.54.068-.784.068s-.5-.022-.783-.068l-.255-.04-.08-.067-.194-.718c-.212-.067-.422-.155-.538-.26l-.734.368-.103-.008-.21-.152a5.018 5.018 0 0 1-.6-.508 4.891 4.891 0 0 1-.506-.601l-.151-.209-.009-.103.366-.643c-.102-.2-.19-.412-.196-.565l-.78-.26-.066-.08-.04-.255a4.954 4.954 0 0 1-.068-.785c0-.244.022-.5.067-.786l.04-.256.068-.079.715-.194c.07-.215.156-.425.259-.538l-.368-.735.008-.103.152-.211c.31-.427.682-.8 1.108-1.11l.21-.15.103-.009.643.37c.197-.1.408-.188.564-.196l.26-.781.079-.067.255-.04c.293-.047.542-.069.784-.069a4.9 4.9 0 0 1 .783.067l.253.04.08.067.194.714c.216.07.426.157.538.26l.735-.368.103.008.21.152c.423.307.796.68 1.11 1.109l.15.21.009.103-.369.645c.103.2.19.412.197.565l.78.261.066.08.04.254zm-.914.414l-.316-.106-.394-.176-.104-.333a3.427 3.427 0 0 0-.229-.553l-.16-.398.303-.607a4.075 4.075 0 0 0-.53-.529l-.695.306-.307-.161a3.473 3.473 0 0 0-.55-.227l-.398-.167-.215-.645a3.61 3.61 0 0 0-.74 0l-.105.316-.175.395-.333.104c-.191.06-.376.137-.549.227l-.4.164-.608-.304a4 4 0 0 0-.524.525l.148.296.154.403-.161.308a3.368 3.368 0 0 0-.227.55l-.167.4-.645.215a3.63 3.63 0 0 0 0 .746l.711.277.104.335c.055.182.13.365.225.547l.163.4-.303.607a3.616 3.616 0 0 0 .524.525l.296-.148.405-.156.31.162c.17.09.352.165.543.224l.4.167.11.333.105.316a3.634 3.634 0 0 0 .742 0l.105-.315.173-.395.333-.104c.19-.06.377-.137.551-.228l.4-.162.607.305c.1-.082.19-.163.273-.247l.002-.002c.085-.085.167-.176.25-.279l-.306-.698.164-.31c.092-.173.167-.356.223-.543l.167-.4.333-.114.316-.105a3.63 3.63 0 0 0 .02-.371v-.007a2.9 2.9 0 0 0-.019-.363zm-3.964-1.582a1.956 1.956 0 0 1 0 3.91 1.956 1.956 0 0 1 0-3.91zm.698 2.654a.985.985 0 0 0 0-1.398.976.976 0 0 0-.698-.29.98.98 0 0 0-.698.29.978.978 0 0 0-.29.699c0 .263.104.512.29.699.186.187.434.29.698.29a.98.98 0 0 0 .698-.29z"/></g></g></g></svg>
